public/icons/cart1-icon1-mobile.svg

<svg width="22" height="30" viewBox="0 0 22 30" fill="none" xmlns="http://www.w3.org/2000/svg">
<path fill-rule="evenodd" clip-rule="evenodd" d="M12.9235 27.4787L10.9974 29.9982L9.08445 27.481C8.20836 26.3377 0.505859 16.1302 0.505859 10.7912C0.505859 4.33742 4.72273 0.00195312 10.9998 0.00195312C17.2768 0.00195312 21.4937 4.33742 21.4932 10.7907C21.4932 15.7487 14.934 24.8171 12.9235 27.4787ZM10.9998 4.2507C7.34539 4.2507 4.37258 7.21461 4.37258 10.8573C4.37258 14.5004 7.34539 17.4638 10.9998 17.4638C14.6541 17.4638 17.627 14.4999 17.627 10.8573C17.627 7.21461 14.6541 4.2507 10.9998 4.2507ZM10.9998 6.12547C13.6201 6.12547 15.752 8.24797 15.752 10.857C15.752 13.4661 13.6201 15.5886 10.9998 15.5886C8.37945 15.5886 6.24757 13.4661 6.24757 10.857C6.24757 8.24797 8.37945 6.12547 10.9998 6.12547Z" fill="url(#paint0_linear_1098_2862)"/>
<defs>
<linearGradient id="paint0_linear_1098_2862" x1="16.0238" y1="0.0025314" x2="18.4489" y2="22.0111" gradientUnits="userSpaceOnUse">
<stop stop-color="#B300BE"/>
<stop offset="1" stop-color="#11D9EB"/>
</linearGradient>
</defs>
</svg>

<svg width="22" height="30" fill="none" xmlns="http://www.w3.org/2000/svg"><path fill-rule="evenodd" clip-rule="evenodd" d="m12.924 27.479-1.927 2.52-1.913-2.518C8.208 26.338.506 16.131.506 10.791.506 4.337 4.723.002 11 .002s10.494 4.335 10.493 10.789c0 4.958-6.559 14.026-8.57 16.688zM11 4.25c-3.655 0-6.627 2.964-6.627 6.606 0 3.643 2.972 6.607 6.627 6.607 3.654 0 6.627-2.964 6.627-6.607 0-3.642-2.973-6.606-6.627-6.606zm0 1.874c2.62 0 4.752 2.123 4.752 4.732 0 2.61-2.132 4.732-4.752 4.732-2.62 0-4.752-2.123-4.752-4.732S8.379 6.125 11 6.125z" fill="url(#a)"/><defs><linearGradient id="a" x1="16.024" y1=".003" x2="18.449" y2="22.011" gradientUnits="userSpaceOnUse"><stop stop-color="#B300BE"/><stop offset="1" stop-color="#11D9EB"/></linearGradient></defs></svg>
